X: 17885
T: Horse-Shoe Bend, The
R: jig
M: 6/8
K: Gmajor
|:e|dBB GBB|dBB g2e|dBB GBB|AFd cBA|
dBB GBB|dBB g2g|fed ^cAg|fdd d2:|
|:e|fed Add|fed Adf|gfe Bec|Beg bge|
fed AdB|Adf a2f|gfe ^cAg|fdd d2:|

